!!!COM: Mendelssohn, Felix
!!!CDT: 1809/02/03-1847/11/04
!!!OPR: Sechs vierstimmige Lieder
!!!OTL: Frühlingsahnung
!!!OPS: Op. 48
!!!ONM: Nr. 1
!!!OMD: Andante sostenuto
**kern	**text	**dynam	**kern	**text	**dynam	**kern	**text	**dynam	**kern	**text	**dynam
*part4	*part4	*part4	*part3	*part3	*part3	*part2	*part2	*part2	*part1	*part1	*part1
*staff4	*staff4	*	*staff3	*staff3	*	*staff2	*staff2	*	*staff1	*staff1	*
*I"Bass	*	*	*I"Tenor	*	*	*I"Alt	*	*	*I"Sopran	*	*
*	*	*	*	*	*	*	*	*	*	*	*
*clefF4	*	*	*clefGv2	*	*	*clefG2	*	*	*clefG2	*	*
*k[f#c#g#d#]	*	*	*k[f#c#g#d#]	*	*	*k[f#c#g#d#]	*	*	*k[f#c#g#d#]	*	*
*E:	*	*	*E:	*	*	*E:	*	*	*E:	*	*
*M6/8	*	*	*M6/8	*	*	*M6/8	*	*	*M6/8	*	*
*MM120	*	*	*MM120	*	*	*MM120	*	*	*MM120	*	*
=1	=1	=1	=1	=1	=1	=1	=1	=1	=1	=1	=1
4.E	O	p	4.B	O	p	4.e	O	p	4.g#	O	p
4E	sanf-	.	4c#	sanf-	.	4e	sanf-	.	4a	sanf-	.
8E	-ter	<	8B	-ter	<	8e	-ter	<	8g#	-ter	<
=	=	=	=	=	=	=	=	=	=	=	=
4E	sü-	[ >	4d#	sü-	[ >	4a	sü-	[ >	4cc#	sü-	[ >
8E	-sser	]	8e	-sser	]	8g#	-sser	]	8b	-sser	]
4.E;	Hauch!	.	4.e;	Hauch!	.	4.g#;	Hauch!	.	4.b;	Hauch!	.
=	=	=	=	=	=	=	=	=	=	=	=
!	!	!	!	!	!	!	!	!	!LO:TX:a:i:t=più animato	!	!
2.r	.	.	2.r	.	.	2.r	.	.	4.b	Schon	f
.	.	.	.	.	.	.	.	.	8qcc#/	.	.
.	.	.	.	.	.	.	.	.	8b	we-	.
.	.	.	.	.	.	.	.	.	8a#X	-ckest	.
.	.	.	.	.	.	.	.	.	8b	du	.
=	=	=	=	=	=	=	=	=	=	=	=
2.r	.	.	2.r	.	.	2.r	.	.	4.ee	wie-	.
.	.	.	.	.	.	.	.	.	4.b	-der,	.
=	=	=	=	=	=	=	=	=	=	=	=
4.E	Schon	f	4.B	schon	f	4.e	Schon	f	4.g#	schon	.
.	.	.	8qc#/	.	.	.	.	.	8qa/	.	.
8E	we-	.	8B	we-	.	8e	we-	.	8g#	we-	.
8E	-ckest	.	8A#X	-ckest	.	8e	-ckest	.	8f##X	-ckest	.
8E	du	.	8B	du	.	8e	du	.	8g#	du	.
=	=	=	=	=	=	=	=	=	=	=	=
*	*	*	*	*	*	*	*	*	*	*	*
4.c#	wie-	.	4.e	wie-	.	4.e	wie-	.	4b	wie-	.
.	.	.	.	.	.	.	.	.	8a	.	.
4.B	-der	.	4.B	-der	.	4.e	-der	.	4.g#	-der	.
*	*	*	*	*	*	*	*	*	*	*	*
=	=	=	=	=	=	=	=	=	=	=	=
4.A	mir	.	4.B	mir	.	4.d#	mir	.	4.f#	mir	.
4A	Früh-	.	4B	Früh-	.	8d#L	Früh-	.	8f#L	Früh-	.
.	.	.	.	.	.	8eJ	.	.	8g#J	.	.
8A	-lings	.	8B	-lings	.	8f#	-lings	.	8a	-lings	.
=	=	=	=	=	=	=	=	=	=	=	=
4.A	lie-	sf	4.B	lie-	sf	4.d#	lie-	sf	4.cc#	lie-	sf
4G#	-der,	.	4B	-der,	.	4e	-der,	.	4b	-der,	.
8G#	bald	p	8B	bald	p	8e	bald	p	8b	bald	p
=	=	=	=	=	=	=	=	=	=	=	=
.	.	.	.	.	.	.	.	.	8qcc#/	.	.
8G#	blü-	.	8B	blü-	.	8e	blü-	.	8b	blü-	.
8G#	-hen	.	8B	-hen	.	8e	-hen	.	8a#X	-hen	.
8G#	die	.	8B	die	.	8e	die	.	8b	die	.
*	*	*	*	*	*	*	*	*	*	*	*
8G#L	Veil-	.	4B	Veil-	.	8eL	Veil-	.	8eeL	Veil-	.
8F#J	.	.	.	.	.	8f#J	.	.	8dd#J	.	.
8E	-chen	.	8B	-chen	.	8g#	-chen	.	8cc#	-chen	.
*	*	*	*	*	*	*	*	*	*	*	*
=	=	=	=	=	=	=	=	=	=	=	=
4.D#	auch,	.	4.B	auch,	.	(4.f#	auch,	.	[4.b	auch,	.
4.E	bald	.	4.e	bald	.	8g#L	.	.	(8bL]	.	.
.	.	.	.	.	.	8f#J)	.	.	8a#XJ)	.	.
.	.	.	.	.	.	8e	bald	.	8g#	bald	.
=	=	=	=	=	=	=	=	=	=	=	=
8F#	blü-	.	8B	blü-	.	8d#	blü-	.	8f#	blü-	.
8F#	-hen	.	8B	-hen	.	8d#	-hen	.	8b	-hen	.
8F#	die	.	8B	die	.	8f#	die	.	8dd#	die	.
4F#	Veil-	.	4A#X	Veil-	.	4f#	Veil-	.	4dd#	Veil-	.
8F#	-chen	.	8A#	-chen	.	8e	-chen	.	8cc#	-chen	.
=	=	=	=	=	=	=	=	=	=	=	=
*	*	*	*	*	*	*	*	*	*	*	*
4G#	auch,	.	[2.B	auch,	.	4d#	auch,	.	4b	auch,	.
8r	.	.	.	.	.	8r	.	.	8r	.	.
4.r	.	.	.	.	.	4.r	.	.	4r	.	.
.	.	.	.	.	.	.	.	.	8r	.	.
=	=	=	=	=	=	=	=	=	=	=	=
4F#	bald,	p	2.B_	.	<[	4an	bald,	p	4dd#	bald,	p
8r	.	.	.	.	.	8r	.	.	8r	.	.
4.r	.	.	.	.	.	4.r	.	.	4r	.	.
.	.	.	.	.	.	.	.	.	8r	.	.
*	*	*	*	*	*	*	*	*	*	*	*
=	=	=	=	=	=	=	=	=	=	=	=
[4.E	bald	f	4.B_	.	f	[4.g#	bald	f	[4.gg#	bald	f
4E]	.	.	4B]	.	.	4g#]	.	.	4gg#]	.	.
8r	.	.	8r	.	.	8r	.	.	8r	.	.
=	=	=	=	=	=	=	=	=	=	=	=
4F#	blüh'n	.	4F#	blüh'n	.	4c#	blüh'n	.	4a#X	blüh'n	.
8F#	die	.	8B	die	.	8d#	die	.	8b	die	.
4F#	Veil-	.	4A#X	Veil-	.	8f#L	Veil-	.	8dd#L	Veil-	.
.	.	.	.	.	.	8eJ	.	.	8cc#J	.	.
8BB	-chen	.	8B	-chen	.	8d#	-chen	.	8b	-chen	.
=	=	=	=	=	=	=	=	=	=	=	=
2.BB	auch.	.	2.B	auch.	.	2.d#	auch.	.	2.b	auch.	.
=	=	=	=	=	=	=	=	=	=	=	=
2.r	.	.	4.B	O	p	4.d#	O	p	4.f#	O	p
!	!	!	!LO:TX:a:i:t=rit.	!	!	!	!	!	!LO:TX:a:i:t=rit.	!	!
.	.	.	4B	sanf-	.	4e	sanf-	.	4g#	sanf-	.
.	.	.	8B	-ter	<	8d#	-ter	<	8f#	-ter	<
=	=	=	=	=	=	=	=	=	=	=	=
2.r;	.	.	4B	sü-	[ >	4g#	sü-	[ >	4b	sü-	[ >
.	.	.	8B	-sser	]	8f#	-sser	]	8a	-sser	]
.	.	.	4.B;	Hauch!	.	4.f#;	Hauch!	.	4.a;	Hauch!	.
=	=	=	=	=	=	=	=	=	=	=	=
4.E	O	f	4.B	O	f	4.e	O	f	4.g#	O	f
4E	sanf-	.	4c#	sanf-	.	4e	sanf-	.	4a	sanf-	.
8E	-ter	<	8B	-ter	<	8e	-ter	<	8g#	-ter	<
=	=	=	=	=	=	=	=	=	=	=	=
4E	sü-	[ >	4e	sü-	[ >	4a	sü-	[ >	4cc#	sü-	[ >
8E	-sser	]	8dn	-sser	]	8g#	-sser	]	8b	-sser	]
4.E;	Hauch!	.	4.d;	Hauch!	.	4.g#;	Hauch!	.	4.b;	Hauch!	.
=	=	=	=	=	=	=	=	=	=	=	=
!	!	!	!	!	!	!	!	!	!LO:TX:a:i:t=Tempo 1º	!	!
2.r	.	.	4.dn	Schon	f	2.r	.	.	2.r	.	.
.	.	.	8f#	we-	.	.	.	.	.	.	.
.	.	.	8e	-ckest	.	.	.	.	.	.	.
.	.	.	8B	du	.	.	.	.	.	.	.
=	=	=	=	=	=	=	=	=	=	=	=
2.r	.	.	4.dn	wie-	.	2.r	.	.	2.r	.	.
.	.	.	4.c#	-der,	.	.	.	.	.	.	.
=	=	=	=	=	=	=	=	=	=	=	=
4.F#	schon	f	4.dn	schon	.	4.a	schon	f	4.ddn	schon	f
8G#	we-	.	8d	we-	.	8b	we-	.	8ff#	we-	.
8G#	-ckest	.	8c#	-ckest	.	8e	-ckest	.	8ee	-ckest	.
8G#	du	.	8B	du	.	8e	du	.	8b	du	.
=	=	=	=	=	=	=	=	=	=	=	=
4.G#	wie-	.	4.B	wie-	.	4.e	wie-	.	4.ddn	wie-	.
4.A	-der	.	4.A	-der	.	4.e	-der	.	4.cc#	-der	.
=	=	=	=	=	=	=	=	=	=	=	=
4.c#	mir	.	4.e	mir	.	4.a	mir	.	4.ee	mir	.
*	*	*	*	*	*	*	*	*	*	*	*
4c#	Früh-	.	4e	Früh-	.	4a	Früh-	.	(8eeL	Früh-	.
.	.	.	.	.	.	.	.	.	8aJ)	.	.
8A	-lings	.	8A	-lings	.	8e	-lings	.	8cc#	-lings	.
*	*	*	*	*	*	*	*	*	*	*	*
=	=	=	=	=	=	=	=	=	=	=	=
4.A	lie-	.	4.A	lie-	.	4.e	lie-	.	4.cc#	lie-	.
4.B	-der,	.	4.G#	-der,	.	4.e	-der,	.	4.b	-der,	.
=	=	=	=	=	=	=	=	=	=	=	=
*	*	*	*	*	*	*	*	*	*	*	*
4c#	bald,	pp	[2.e	bald	pp	4f#	bald,	pp	4a#X	bald,	pp
8r	.	.	.	.	.	8r	.	.	8r	.	.
4r	.	.	.	.	.	4r	.	.	4r	.	.
8r	.	.	.	.	.	8r	.	.	8r	.	.
=	=	=	=	=	=	=	=	=	=	=	=
4A#X	bald	.	2.e]	.	.	4f#	bald	.	4cc#	bald	.
8r	.	.	.	.	.	8r	.	.	8r	.	.
4r	.	.	.	.	.	4r	.	.	4r	.	.
8r	.	.	.	.	.	8r	.	.	8r	.	.
*	*	*	*	*	*	*	*	*	*	*	*
=	=	=	=	=	=	=	=	=	=	=	=
4BB	blüh'n	.	4F#	blüh'n	.	4B	blüh'n	.	4d#	blüh'n	.
8BB	die	.	8G#	die	.	8e	die	.	8e	die	.
*	*	*	*	*	*	*	*	*	*	*	*
4BB	Veil-	.	8BL	Veil-	.	4d#	Veil-	.	8g#L	Veil-	.
.	.	.	8AJ	.	.	.	.	.	8f#J	.	.
8BB	-chen	.	8G#	-chen	.	8e	-chen	.	8e	-chen	.
*	*	*	*	*	*	*	*	*	*	*	*
*	*	*	*	*	*	*	*	*	*	*	*
=	=	=	=	=	=	=	=	=	=	=	=
4.C#	auch,	.	4.G#	auch,	.	[4.e	auch,	.	[4.e	auch,	.
4r	.	.	4r	.	.	4e]	.	.	4e]	.	.
8r	.	.	8r	.	.	8e	bald	p	8f#	bald	p
=	=	=	=	=	=	=	=	=	=	=	=
4A#X	bald,	p	4c#	bald,	p	4e	blüh'n	.	4f#	blüh'n	.
8r	.	.	8r	.	.	8e	die	.	8f#	die	.
4r	.	.	4r	.	.	4e	Veil-	.	4f#	Veil-	.
8r	.	.	8B	bald	.	8e	-chen	.	8f#	-chen	.
=	=	=	=	=	=	=	=	=	=	=	=
4r	.	.	4B	blüh'n	<	2.e	auch,	<	[2.f#	auch,	<
8r	.	.	8B	die	.	.	.	.	.	.	.
8r	.	.	4B	Veil-	.	.	.	.	.	.	.
8r	.	.	.	.	.	.	.	.	.	.	.
8An	bald	.	8B	-chen	.	.	.	.	.	.	.
=	=	=	=	=	=	=	=	=	=	=	=
*	*	*	*	*	*	*	*	*	*	*	*
4A	blüh'n	<	[2.B	auch,	.	[4.d#	.	.	8f#L]	.	.
.	.	.	.	.	.	.	.	.	8g#	.	.
8A	die	.	.	.	.	.	.	.	8aJ	.	.
*	*	*	*	*	*	*	*	*	*	*	*
4A	Veil-	.	.	.	<	8d#L]	.	<	8bL	.	<
.	.	.	.	.	.	8e	.	.	8cc#	.	.
8A	-chen	<	.	.	.	8f#J	.	.	8dd#J	.	.
=	=	=	=	=	=	=	=	=	=	=	=
[4.G#	auch,	.	4.B_	.	.	8g#L	.	.	(8eeL	.	.
.	.	.	.	.	[ >	8b	.	[ >	8gg#	.	[ >
.	.	.	.	.	.	8aJ	.	.	8ff#J	.	.
4G#]	.	.	4B]	.	.	8g#L	.	.	8eeL	.	.
.	.	.	.	.	.	8f#J	.	.	8dd#J)	.	.
8A	bald	.	8c#	bald	]	8e	bald	]	8cc#	bald	]
*	*	*	*	*	*	*	*	*	*	*	*
=	=	=	=	=	=	=	=	=	=	=	=
4B	blüh'n	.	4e	blüh'n	.	4g#	blüh'n	.	4b	blüh'n	.
8BB	die	.	8B	die	.	8e	die	.	8g#	die	.
4BB	Veil-	.	4B	Veil-	.	4d#	Veil-	.	4g#	Veil-	.
8BB	-chen	.	8A	-chen	.	8d#	-chen	.	8f#	-chen	.
=	=	=	=	=	=	=	=	=	=	=	=
4E	auch.	.	4G#	auch.	.	4e	auch.	.	4e	auch.	.
8r	.	.	8r	.	.	8r	.	.	8r	.	.
4.r	.	.	4.B	O	<	4.e	O	<	4.g#	O	<
=	=	=	=	=	=	=	=	=	=	=	=
!	!	!	!LO:TX:a:i:t=rit.	!	!	!LO:TX:a:i:t=rit.	!	!	!LO:TX:a:i:t=rit.	!	!
2.r	.	.	4c#	sanf-	.	4e	sanf-	.	4a	sanf-	.
.	.	.	8B	-ter	.	8e	-ter	.	8g#	-ter	.
.	.	.	4d#	sü-	sf	4a	sü-	sf	4cc#	sü-	sf
.	.	.	8e	-sser	.	8g#	-sser	.	8b	-sser	.
=	=	=	=	=	=	=	=	=	=	=	=
2.r	.	.	2.e;	Hauch!	.	2.g#;	Hauch!	.	2.b;	Hauch!	.
=	=	=	=	=	=	=	=	=	=	=	=
4.E	O	pp	4.G#	O	.	4.B	O	pp	4.e	O	pp
4E	sanf-	.	4A	sanf-	.	4c#	sanf-	.	4f#	sanf-	.
8E	-ter	.	8G#	-ter	.	8B	-ter	.	8e	-ter	.
=	=	=	=	=	=	=	=	=	=	=	=
*	*	*	*	*	*	*	*	*	*	*	*
[4.BB	sü-	.	[4.B	sü-	.	[4.d#	sü-	.	[4.g#	sü-	.
4BB]	.	.	8BL]	.	.	4d#]	.	.	8g#L]	.	.
.	.	.	8AJ	.	.	.	.	.	8f#J	.	.
8BB	-sser	.	8G#	-sser	.	8B	-sser	.	8e	-sser	.
*	*	*	*	*	*	*	*	*	*	*	*
=	=	=	=	=	=	=	=	=	=	=	=
!	!	!	!	!	!	!	!	!	!LO:TX:a:i:t=attaca № 2	!	!
2.EE; 2.E	Hauch!	.	2.G#;	Hauch!	.	2.B;	Hauch!	.	2.e;	Hauch!	.
*	*	*	*	*	*	*	*	*	*	*	*
==	==	==	==	==	==	==	==	==	==	==	==
*-	*-	*-	*-	*-	*-	*-	*-	*-	*-	*-	*-
!!!system-decoration: ([s1,s2,s3,s4])
!!!RDF**kern: i = editorial accidental
!!!AGN: Choral
!!!YOR: https://mdz-nbn-resolving.de/details:bsb11328486
!!!YOO: München, Bayerische Staatsbibliothek
!!!URL-scan: https://www.digitale-sammlungen.de/de/view/bsb11328486?page=2
!!!EED: Wolfgang Drescher
!!!END: 2024/11/12
!!!ENC: Wolfgang Drescher
!!!END: 2024/11/12
!!!title: @{OPS} @{ONM}. @{OTL}